!!!OTL: 702. Die Trauernde.
!!!ARE: Europa, Mitteleuropa, Deutschland, Schlesien
!!!SCT: E0702
!!!TXL: @@DE
!!!YEM: Copyright 1995, estate of Helmut Schaffrath.
**kern	**text
*ICvox	*
*M2/4	*
*k[f#]	*
*e:	*
!LO:TX:a:t=Langsam.	!
!LO:TX:a:t=Aus Schleſien, Hoffm. Nr. 139.	!
{8e	Was
=1	=1
8bL	führ
8aJ	.
8g	ich
8a	denn
=2	=2
4.f#}	ſo
{8g	für'n
=3	=3
8bL	trau-
8aJ	.
8g	-ri-
8a	-ges
=4	=4
[4f#	Le-
8f#]}	-ben,
{8f#	daß
=5	=5
4f#	mir
4f#	mein
=6	=6
[4b	Schatʒ
8b]}	.
{8b	hat
=7	=7
8bL	Ur-
8aJ	.
8g	-laub
8e	ge-
=8	=8
[4f#	-ge-
8f#]}	-ben,
{8f#	hat
=9	=9
4f#	Ur-
8f#	-laub
8f#	ge-
=10	=10
[4b	-ge-
8b]}	-ben
{8b	und
=11	=11
8b/	mei-
8a	-ner
8g	nicht
8b	ge-
=12	=12
4a	-dacht,
8r}	.
{8a	drum
=13	=13
4b	geb_ich
4b	meinem
=14	=14
8gL	Schatʒ
8f#J	.
8eL}	viel
{8gJ	.
=15	=15
8bL	tau-
8aJ	-ſend
8f#	gu-
8g	-te
=16	=16
4e	Nacht.
8r}	.
==	==
!!!Ag: Liebes - Lied, Leid, Klage
!!!ONB: ESAC (Essen Associative Code) Database: ERK2
!!!AMT: simple duple
!!!AIN: vox
!!!EED: Helmut Schaffrath
!!!EEV: 1.0
!!!GTL: Liebeslieder [Neuere (aus dem 18. bis 19. Jahrh.) - Liebesleid] 678-740
!!!URL-scan: https://rosdok.uni-rostock.de/mcrviewer/recordIdentifier/rosdok_ppn745177662/iview2/phys_0507.iview2?x=193.8995864193107&y=180.711025421042&scale=0.7029437510502773&rotation=0&layout=singlePageLayout
!!!ENC: Anna Maria Matuszewska
!!!EEV: 2024/12/16
*-	*-
